packages/elvis-assets-icons/icons/svg/src/mail_error-color.svg

<svg width="24" height="24" fill="none" xmlns="http://www.w3.org/2000/svg"><g clip-path="url(#clip0)"><path d="M17.249 21.75c-.62 0-1.125-.505-1.125-1.125s.505-1.125 1.125-1.125l.071.005a1.117 1.117 0 011.054 1.12c0 .62-.505 1.125-1.125 1.125zM17.249 18.75a.75.75 0 01-.75-.75v-3a.75.75 0 011.5 0v3a.75.75 0 01-.75.75z" fill="#000"/><path d="M13.023 24a2.528 2.528 0 01-2.258-3.654l4.226-8.451a2.513 2.513 0 012.262-1.396c.393 0 .771.089 1.124.266.486.243.887.644 1.13 1.13l4.226 8.451A2.526 2.526 0 0121.475 24h-8.452zm4.229-12c-.392 0-.744.217-.918.567l-4.226 8.451a1.025 1.025 0 00.915 1.483h8.452a1.026 1.026 0 00.917-1.483l-4.226-8.451a1.037 1.037 0 00-.458-.459 1.013 1.013 0 00-.456-.108z" fill="#29D305"/><path d="M2.249 16.5a2.252 2.252 0 01-2.25-2.25v-12c0-.504.164-.981.476-1.38L.493.844A2.242 2.242 0 012.249 0h18a2.242 2.242 0 011.777.875c.309.398.472.873.472 1.375v8.25a.75.75 0 01-1.5 0V2.562l-7.276 5.596a4.077 4.077 0 01-2.474.841 4.07 4.07 0 01-2.473-.841L1.499 2.562V14.25c0 .414.336.75.75.75h7.5a.75.75 0 010 1.5h-7.5zM9.69 6.969c.45.347.99.53 1.56.53.562 0 1.116-.188 1.56-.53L19.92 1.5H2.578L9.69 6.969z" fill="#000"/></g><defs><clipPath id="clip0"><path d="M0 0h24v24H0V0z" fill="#fff"/></clipPath></defs></svg>

<svg width="24" height="24" viewBox="0 0 24 24" fill="none" xmlns="http://www.w3.org/2000/svg">
<g clip-path="url(#clip0)">
<path d="M17.249 21.75C16.629 21.75 16.124 21.245 16.124 20.625C16.124 20.005 16.629 19.5 17.249 19.5C17.261 19.5 17.309 19.504 17.32 19.505C17.902 19.531 18.374 20.024 18.374 20.625C18.374 21.245 17.869 21.75 17.249 21.75Z" fill="black"/>
<path d="M17.249 18.75C16.835 18.75 16.499 18.414 16.499 18V15C16.499 14.586 16.835 14.25 17.249 14.25C17.663 14.25 17.999 14.586 17.999 15V18C17.999 18.414 17.663 18.75 17.249 18.75Z" fill="black"/>
<path d="M13.023 24C11.632 24 10.499 22.868 10.498 21.477C10.498 21.087 10.59 20.696 10.765 20.346L14.991 11.895C15.421 11.034 16.288 10.499 17.253 10.499C17.646 10.499 18.024 10.588 18.377 10.765C18.863 11.008 19.264 11.409 19.507 11.895L23.733 20.346C24.356 21.59 23.85 23.11 22.606 23.732C22.256 23.908 21.865 24 21.475 24H13.023ZM17.252 12C16.86 12 16.508 12.217 16.334 12.567L12.108 21.018C12.037 21.16 11.999 21.318 11.999 21.477C11.999 22.042 12.459 22.501 13.023 22.501H21.475C21.633 22.501 21.792 22.463 21.935 22.392C22.439 22.14 22.644 21.523 22.392 21.018L18.166 12.567C18.067 12.37 17.905 12.207 17.708 12.108C17.564 12.036 17.41 12 17.252 12Z" fill="#29D305"/>
<path d="M2.24899 16.5C1.00799 16.5 -0.00100708 15.491 -0.00100708 14.25V2.25C-0.00100708 1.746 0.162993 1.269 0.474993 0.87C0.480993 0.86 0.487993 0.851 0.492993 0.844C0.499993 0.835 0.508993 0.824 0.518993 0.814C0.947993 0.297 1.57799 0 2.24899 0H20.249C20.919 0 21.549 0.296 21.978 0.812C21.987 0.821 21.995 0.831 22.001 0.839C22.01 0.85 22.018 0.862 22.026 0.875C22.335 1.273 22.498 1.748 22.498 2.25V10.5C22.498 10.914 22.162 11.25 21.748 11.25C21.334 11.25 20.998 10.914 20.998 10.5V2.562L13.722 8.158C13.018 8.7 12.139 8.999 11.248 8.999C10.357 8.999 9.47999 8.701 8.77499 8.158L1.49899 2.562V14.25C1.49899 14.664 1.83499 15 2.24899 15H9.74899C10.163 15 10.499 15.336 10.499 15.75C10.499 16.164 10.163 16.5 9.74899 16.5H2.24899ZM9.68999 6.969C10.14 7.316 10.68 7.499 11.25 7.499C11.812 7.499 12.366 7.311 12.81 6.969L19.92 1.5H2.57799L9.68999 6.969Z" fill="black"/>
</g>
<defs>
<clipPath id="clip0">
<path d="M0 0H24V24H0V0Z" fill="white"/>
</clipPath>
</defs>
</svg>
